!!!OTL: Was mein Gott will, das gscheh allzeit
!!!ARE: Europa, Mitteleuropa, Deutschland
!!!SCT: A0640A
!!!YEM: Copyright 1995, estate of Helmut Schaffrath.
**kern
*ICvox
*Ivox
*M4/2
*k[b-]
*d:
{1d
=1
1fn
1g
=2
2fn
2b-
2b-
2a
=3
2b-}
{2b-
2a
2g
=4
1ccn
2b-
2a
=5
4a
4g
1g
2f#
=6
1g}
{1d
=7
1fn
1g
=8
2fn
2b-
2b-
2a
=9
2b-}
{2b-
2a
2g
=10
1ccn
2b-
2a
=11
4a
4g
1g
2f#
=12
1g
1r
=13
2r}
{2g
2g
2g
=14
4a
4g
4fn
4e
2fn
[2g
=15
2g]
1fn
2e
=16
1fn
2r}
{2fn
=17
2.fn
4g
2a
[2b-
=18
2b-]
2a
1g
=19
1fn
2r}
{2d
=20
1fn
1g
=21
2fn
2b-
2b-
2a
=22
2b-}
{2b-
2a
2g
=23
1ccn
2b-
2a
=24
4a
4g
1g
2f#
=25
0g}
==
!!!AGN: Romanze, Ballade, Lied, religioeses Lied
!! Fliegendes Blatt 1530
!!!ONB: ESAC (Essen Associative Code) Database: ALTDEU
!!!AMT: simple quadruple
!!!AIN: vox
!!!EED: Helmut Schaffrath
!!!EEV: 1.0
*-
